source/img/icons/icon-vkontakte.svg

<svg width="29" height="18" viewBox="0 0 29 18" fill="none" xmlns="http://www.w3.org/2000/svg">
<path d="M0.0914307 2.48988C0.0914307 1.63485 0.643326 1.17381 1.74712 1.10674L6.00052 1.13189C6.28599 1.13189 6.47629 1.25763 6.57145 1.50911C7.00916 2.76651 7.4992 3.85206 8.04158 4.76577C8.58397 5.67948 9.29287 6.7315 10.1683 7.92183C10.2444 8.07272 10.3681 8.14816 10.5394 8.14816C10.6726 8.14816 10.7773 8.08949 10.8534 7.97213L10.939 7.6955L10.9676 3.34491C10.9676 3.04313 10.8867 2.84195 10.7249 2.74136C10.5632 2.64077 10.2634 2.56532 9.82573 2.51503C9.48318 2.46473 9.3119 2.28031 9.3119 1.96177C9.3119 1.89471 9.32141 1.84442 9.34044 1.81089C9.74009 0.721143 10.8819 0.176271 12.766 0.176271L14.3646 0.151123C15.0878 0.151123 15.6872 0.310393 16.163 0.628934C16.6388 0.947474 16.8767 1.45043 16.8767 2.13781V7.84639C17.0099 7.93022 17.1336 7.97213 17.2478 7.97213C17.5332 7.97213 17.7806 7.82124 17.99 7.51947C20.0834 4.93761 21.2157 3.21079 21.387 2.33899C21.387 2.32223 21.406 2.28031 21.4441 2.21325C21.5773 1.96177 21.7962 1.74383 22.1007 1.55941C22.4051 1.37499 22.6716 1.24925 22.9 1.18219C22.9761 1.14866 23.0617 1.13189 23.1569 1.13189H27.5816L27.867 1.15704C28.2476 1.15704 28.5426 1.31631 28.752 1.63485C28.8281 1.73544 28.8804 1.84442 28.909 1.96177C28.9375 2.07913 28.9565 2.19649 28.966 2.31384C28.9756 2.4312 28.9803 2.49826 28.9803 2.51503V2.69106C28.8471 3.37844 28.5093 4.11192 27.9669 4.89151C27.4245 5.67109 26.7347 6.51355 25.8973 7.41887C25.06 8.3242 24.5366 8.91937 24.3273 9.20438C24.156 9.40556 24.0704 9.58998 24.0704 9.75763C24.0704 9.89175 24.1465 10.0426 24.2987 10.2103L28.4665 14.8375C28.6949 15.1058 28.809 15.3992 28.809 15.7177C28.809 16.1033 28.6378 16.4218 28.2952 16.6733C27.9527 16.9248 27.5435 17.0673 27.0677 17.1008L26.5824 17.126H22.2434C22.2244 17.126 22.1863 17.1302 22.1292 17.1385C22.0721 17.1469 22.034 17.1511 22.015 17.1511C21.5963 17.1511 21.2062 16.9919 20.8446 16.6733C20.7114 16.5392 19.8169 15.55 18.1613 13.7059C18.0661 13.5885 17.9329 13.4795 17.7616 13.3789C17.6855 13.6472 17.5856 14.0328 17.4619 14.5357C17.3382 15.0387 17.2478 15.3992 17.1907 15.6171L17.105 16.0446C16.9147 16.6314 16.5151 16.9835 15.9061 17.1008L15.5065 17.126H12.7089C11.1293 17.126 9.55454 16.4889 7.98449 15.2147C6.41444 13.9406 5.0014 12.2934 3.74536 10.2732C2.48932 8.25295 1.31892 5.90162 0.234162 3.21917C0.139008 3.00122 0.0914307 2.75813 0.0914307 2.48988ZM17.2478 9.00319C16.8481 9.00319 16.4865 8.90679 16.163 8.71399C15.8395 8.52119 15.6777 8.25714 15.6777 7.92183V2.13781C15.6777 1.8025 15.5826 1.5636 15.3923 1.42109C15.202 1.27859 14.8689 1.20734 14.3931 1.20734L12.766 1.25763C11.9477 1.25763 11.3292 1.38337 10.9105 1.63485C11.7479 1.98692 12.1665 2.55694 12.1665 3.34491V7.77095C12.1285 8.19008 11.9382 8.53796 11.5956 8.81458C11.253 9.09121 10.8724 9.22953 10.4538 9.22953C9.88282 9.22953 9.44511 8.98643 9.14062 8.50024C7.65621 6.52193 6.55242 4.64422 5.82924 2.8671L5.57233 2.21325L1.77566 2.18811C1.52826 2.18811 1.39029 2.20068 1.36174 2.22583C1.3332 2.25098 1.31892 2.32223 1.31892 2.43958C1.31892 2.59047 1.33795 2.74974 1.37602 2.9174L1.97549 4.32568C3.57408 7.96375 5.31065 10.8306 7.18519 12.9263C9.05974 15.0219 10.901 16.0698 12.7089 16.0698H15.5635C15.6777 16.0698 15.7634 16.0404 15.8205 15.9817C15.8776 15.9231 15.9251 15.8099 15.9632 15.6422L16.0203 15.3908L16.5627 13.1778C16.7149 12.876 16.8481 12.6748 16.9623 12.5742C17.1717 12.3898 17.4191 12.2976 17.7045 12.2976C18.1613 12.2976 18.6275 12.5407 19.1033 13.0269L21.5297 15.7428C21.682 15.9608 21.8437 16.0698 22.015 16.0698H26.7252C27.2961 16.0698 27.5816 15.944 27.5816 15.6925C27.5816 15.6087 27.553 15.5249 27.4959 15.4411L23.3567 10.8893C23.0332 10.5372 22.8714 10.16 22.8714 9.75763C22.8714 9.35527 23.0237 8.96966 23.3281 8.60083C23.5755 8.26552 24.0561 7.70808 24.7697 6.92849C25.4834 6.1489 26.1067 5.41961 26.6395 4.74062C27.1724 4.06163 27.5245 3.4455 27.6957 2.89225L27.7814 2.56532C27.7623 2.53179 27.7528 2.47731 27.7528 2.40186C27.7528 2.32642 27.7433 2.26355 27.7243 2.21325H23.2425C22.957 2.31384 22.7287 2.46473 22.5574 2.66592L22.3861 3.14373C21.9103 4.30053 20.6638 6.08603 18.6465 8.50024C18.2469 8.83554 17.7806 9.00319 17.2478 9.00319Z" fill="#666666"/>
</svg>

<svg width="29" height="18" fill="none" xmlns="http://www.w3.org/2000/svg"><path d="M.091 2.49c0-.855.552-1.316 1.656-1.383l4.254.025c.285 0 .475.126.57.377.438 1.258.928 2.343 1.47 3.257.543.913 1.252 1.965 2.127 3.156.076.15.2.226.371.226a.356.356 0 0 0 .314-.176l.086-.277.029-4.35c0-.302-.081-.503-.243-.604-.162-.1-.462-.176-.9-.226-.342-.05-.513-.235-.513-.553 0-.067.01-.118.028-.151C9.74.72 10.882.176 12.766.176l1.599-.025c.723 0 1.322.16 1.798.478.476.318.714.821.714 1.509v5.708a.707.707 0 0 0 .37.126c.286 0 .534-.15.743-.453 2.093-2.581 3.226-4.308 3.397-5.18a.41.41 0 0 1 .057-.126c.133-.251.352-.47.657-.654.304-.184.57-.31.799-.377a.63.63 0 0 1 .257-.05h4.425l.285.025a1 1 0 0 1 .885.478c.076.1.128.21.157.327.029.117.047.234.057.352.01.117.014.184.014.201v.176c-.133.687-.47 1.42-1.013 2.2-.543.78-1.232 1.623-2.07 2.528-.837.905-1.36 1.5-1.57 1.785-.171.202-.257.386-.257.554 0 .134.076.285.229.452l4.168 4.627c.228.269.342.562.342.88 0 .386-.171.705-.514.956-.342.252-.752.394-1.227.428l-.486.025h-4.339c-.019 0-.057.004-.114.012a.988.988 0 0 1-.114.013c-.419 0-.809-.16-1.17-.478-.134-.134-1.028-1.123-2.684-2.967a1.457 1.457 0 0 0-.4-.327c-.075.268-.175.654-.3 1.157a83.81 83.81 0 0 1-.27 1.081l-.086.428c-.19.586-.59.938-1.199 1.056l-.4.025H12.71c-1.58 0-3.154-.637-4.725-1.911-1.57-1.274-2.983-2.922-4.239-4.942C2.49 8.253 1.32 5.902.235 3.22a1.804 1.804 0 0 1-.144-.73Zm17.157 6.513c-.4 0-.762-.096-1.085-.289-.324-.193-.485-.457-.485-.792V2.138c0-.335-.095-.574-.286-.717-.19-.142-.523-.214-.999-.214l-1.627.05c-.818 0-1.437.126-1.855.378.837.352 1.255.922 1.255 1.71V7.77c-.037.42-.228.767-.57 1.044a1.774 1.774 0 0 1-1.142.415c-.571 0-1.009-.244-1.313-.73-1.485-1.978-2.589-3.856-3.312-5.633l-.257-.654-3.796-.025c-.248 0-.386.013-.414.038-.029.025-.043.096-.043.214 0 .15.019.31.057.477l.6 1.409c1.598 3.638 3.335 6.505 5.21 8.6 1.874 2.096 3.715 3.144 5.523 3.144h2.854c.115 0 .2-.03.257-.088.058-.059.105-.172.143-.34l.057-.251.543-2.213c.152-.302.285-.503.4-.604.209-.184.456-.276.741-.276.457 0 .924.243 1.4.729l2.426 2.716c.152.218.314.327.485.327h4.71c.571 0 .857-.126.857-.377a.444.444 0 0 0-.086-.252l-4.14-4.552c-.323-.352-.485-.729-.485-1.131 0-.403.153-.788.457-1.157.248-.335.728-.893 1.442-1.673a38.176 38.176 0 0 0 1.87-2.187c.532-.68.884-1.295 1.056-1.849l.085-.327a.347.347 0 0 1-.028-.163.538.538 0 0 0-.029-.189h-4.482c-.285.1-.513.252-.685.453l-.17.478C21.91 4.3 20.663 6.086 18.646 8.5a2.11 2.11 0 0 1-1.4.503Z" fill="#666"/></svg>
